packages/icons/src/cloud-formation-rollback.svg

<svg fill="none" viewBox="0 0 33 33" xmlns="http://www.w3.org/2000/svg"><path clip-rule="evenodd" d="m14.4899 5.12521c.1931.19692.1905.51361-.0058.70736l-2.1947 2.16636h14.2021c.8261 0 1.4958.67184 1.4958 1.50059v5.37648c0 .2763-.2232.5002-.4986.5002s-.4986-.2239-.4986-.5002v-5.37648c0-.27625-.2233-.5002-.4986-.5002h-14.2021l2.1947 2.16638c.1963.1937.1989.5104.0058.7073-.1932.1969-.5089.1995-.7052.0058l-3.0627-3.02313c-.0953-.09403-.1489-.22248-.1489-.35654 0-.13407.0536-.26252.1489-.35655l3.0627-3.0231c.1963-.19375.512-.19118.7052.00573zm-10.00398 8.88549c.27537 0 .49861.224.49861.5002v11.9643c0 .2763.22324.5002.49861.5002h10.27376c.2754 0 .4986.224.4986.5002 0 .2763-.2232.5002-.4986.5002h-10.27376c-.82613 0-1.49584-.6718-1.49584-1.5006v-11.9643c0-.2762.22324-.5002.49862-.5002z" fill="#0278d5" fill-rule="evenodd"/><path d="m21.1904 28.3888.0942.1069 4.7552 1.3479.0216-.8356-3.3304-.8357-.163-.0588z" fill="#b7ca9d"/><path d="m30.8388 28.3886-4.8566 1.6211-.0144-1.0018 3.3304-.8357.1451-.1634z" fill="#b7ca9d"/><path d="m25.9678 22.6621 3.3304.7762 1.4646-.0695.076-.1468-4.6403-1.6702z" fill="#3c4929"/><path d="m22.7309 28.1721-1.5406.2165-.0428-.16v-4.8383l.0428-.1684 1.3921.1036.1485.1129z" fill="#759c3e"/><path d="m26.0614 22.662-3.3304.7762-1.5406-.2163.0581-.0912 4.7913-1.3636z" fill="#3c4929"/><path d="m26.0076 19.0642-5.531 2.7918.0026 7.9005 5.5284 2.7903.0824-.1251v-13.1953zm-1.6174 10.285-3.2002-.9605v-5.1666l3.2002-.9601zm4.9075-1.1769 1.5406.2164.0863-.1527v-4.8671l-.0863-.1468-1.5406.2165z" fill="#4b612c"/><path d="m26.0078 32.5468 5.5417-2.7902.0027-7.9004-5.5444-2.792zm1.6305-10.2848 3.2002.9601v5.1666l-3.2002.9605z" fill="#759c3e"/></svg>

<svg viewBox="0 0 33 33" fill="none" xmlns="http://www.w3.org/2000/svg">
<path fill-rule="evenodd" clip-rule="evenodd" d="M14.4899 5.12521C14.683 5.32213 14.6804 5.63882 14.4841 5.83257L12.2894 7.99893H26.4915C27.3176 7.99893 27.9873 8.67077 27.9873 9.49952V14.876C27.9873 15.1523 27.7641 15.3762 27.4887 15.3762C27.2133 15.3762 26.9901 15.1523 26.9901 14.876V9.49952C26.9901 9.22327 26.7668 8.99932 26.4915 8.99932H12.2894L14.4841 11.1657C14.6804 11.3594 14.683 11.6761 14.4899 11.873C14.2967 12.0699 13.981 12.0725 13.7847 11.8788L10.722 8.85567C10.6267 8.76164 10.5731 8.63319 10.5731 8.49913C10.5731 8.36506 10.6267 8.23661 10.722 8.14258L13.7847 5.11948C13.981 4.92573 14.2967 4.9283 14.4899 5.12521ZM4.48592 14.0107C4.76129 14.0107 4.98453 14.2347 4.98453 14.5109V26.4752C4.98453 26.7515 5.20777 26.9754 5.48314 26.9754H15.7569C16.0323 26.9754 16.2555 27.1994 16.2555 27.4756C16.2555 27.7519 16.0323 27.9758 15.7569 27.9758H5.48314C4.65701 27.9758 3.9873 27.304 3.9873 26.4752V14.5109C3.9873 14.2347 4.21054 14.0107 4.48592 14.0107Z" fill="#0278D5"/>
<path d="M21.1904 28.3888L21.2846 28.4957L26.0398 29.8436L26.0614 29.008L22.731 28.1723L22.568 28.1135L21.1904 28.3888Z" fill="#B7CA9D"/>
<path d="M30.8388 28.3886L25.9822 30.0097L25.9678 29.0079L29.2982 28.1722L29.4433 28.0088L30.8388 28.3886Z" fill="#B7CA9D"/>
<path d="M25.9678 22.6621L29.2982 23.4383L30.7628 23.3688L30.8388 23.222L26.1985 21.5518L25.9678 22.6621Z" fill="#3C4929"/>
<path d="M22.7309 28.1721L21.1903 28.3886L21.1475 28.2286V23.3903L21.1903 23.2219L22.5824 23.3255L22.7309 23.4384V28.1721Z" fill="#759C3E"/>
<path d="M26.0614 22.662L22.731 23.4382L21.1904 23.2219L21.2485 23.1307L26.0398 21.7671L26.0614 22.662Z" fill="#3C4929"/>
<path d="M26.0076 19.0642L20.4766 21.856L20.4792 29.7565L26.0076 32.5468L26.09 32.4217V19.2264L26.0076 19.0642ZM24.3902 29.3492L21.19 28.3887V23.2221L24.3902 22.262V29.3492ZM29.2977 28.1723L30.8383 28.3887L30.9246 28.236V23.3689L30.8383 23.2221L29.2977 23.4386V28.1723Z" fill="#4B612C"/>
<path d="M26.0078 32.5468L31.5495 29.7566L31.5522 21.8562L26.0078 19.0642V32.5468ZM27.6383 22.262L30.8385 23.2221V28.3887L27.6383 29.3492V22.262Z" fill="#759C3E"/>
</svg>
